packages/ui-icons/svg/Line/reply-all-2.svg

<svg viewBox="0 0 1920 1920" version="1.1" xmlns="http://www.w3.org/2000/svg">
    <path d="M1030.97491,188 L1112.22371,269.248803 L682.995595,698.47692 L983.742578,698.47692 C1499.96552,698.47692 1920,1118.5114 1920,1634.73434 L1920,1634.73434 L1920,1732.76154 L1805.07949,1732.76154 L1805.07949,1634.73434 C1805.07949,1181.8326 1436.64432,813.397433 983.742578,813.397433 L983.742578,813.397433 L682.995595,813.397433 L1112.22371,1242.62555 L1030.97491,1323.87435 L463.037732,755.937177 L1030.97491,188 Z M567.937177,188.011492 L649.18598,269.260295 L162.497606,755.948669 L649.18598,1242.63704 L567.937177,1323.88585 L0,755.948669 L567.937177,188.011492 Z" stroke="none" stroke-width="1" fill-rule="evenodd"/>
</svg>

<svg viewBox="0 0 1920 1920" version="1.1" xmlns="http://www.w3.org/2000/svg">
    <path d="M983.743 698.477c516.223 0 936.257 420.034 936.257 936.257v98.028h-114.92v-98.028c0-452.901-368.436-821.337-821.337-821.337H682.996l429.228 429.229-81.25 81.248-567.936-567.937L1030.975 188l81.249 81.249-429.228 429.228h300.747zM649.186 269.26L162.498 755.95l486.688 486.688-81.249 81.249L0 755.949 567.937 188.01l81.249 81.25z" stroke="none" stroke-width="1" fill-rule="evenodd"/>
</svg>
